icons/printer-cloud-fill.svg

<svg xmlns="http://www.w3.org/2000/svg" width="24" height="24" fill="none"><g clip-path="url(#a)"><g><path fill="#121212" d="M10.566 17C10.1937 17.6915 9.99924 18.4647 10 19.25C10 20.273 10.324 21.223 10.877 22H7V17H10.566ZM17.5 13C18.4283 13 19.3185 13.3687 19.9749 14.0251C20.6313 14.6815 21 15.5717 21 16.5L20.999 16.603C21.6246 16.7793 22.1675 17.1714 22.5315 17.7099C22.8955 18.2484 23.057 18.8983 22.9874 19.5446C22.9178 20.1908 22.6215 20.7914 22.1511 21.24C21.6808 21.6886 21.0668 21.9561 20.418 21.995L20.25 22H14.75L14.582 21.995C13.9333 21.9557 13.3196 21.6879 12.8495 21.2392C12.3795 20.7905 12.0835 20.1898 12.0142 19.5437C11.9448 18.8975 12.1064 18.2477 12.4705 17.7094C12.8346 17.1711 13.3775 16.7792 14.003 16.603L14 16.5C14 15.5717 14.3687 14.6815 15.0251 14.0251C15.6815 13.3687 16.5717 13 17.5 13ZM21 8C21.2652 8 21.5196 8.10536 21.7071 8.29289C21.8946 8.48043 22 8.73478 22 9L22.001 13.346C21.4954 12.6211 20.8221 12.0292 20.0384 11.6207C19.2546 11.2122 18.3838 10.9993 17.5 11L17.279 11.004C16.1204 11.0508 15.0061 11.4623 14.0953 12.1799C13.1845 12.8975 12.5236 13.8845 12.207 15H5V20H3C2.73478 20 2.48043 19.8946 2.29289 19.7071C2.10536 19.5196 2 19.2652 2 19V9C2 8.73478 2.10536 8.48043 2.29289 8.29289C2.48043 8.10536 2.73478 8 3 8H21ZM8 10H5V12H8V10ZM17 2C17.2652 2 17.5196 2.10536 17.7071 2.29289C17.8946 2.48043 18 2.73478 18 3V6H6V3C6 2.73478 6.10536 2.48043 6.29289 2.29289C6.48043 2.10536 6.73478 2 7 2H17Z"/></g></g><defs><clipPath id="a"><rect width="24" height="24" fill="white"/></clipPath></defs></svg>

<svg width="24" height="24" fill="none" xmlns="http://www.w3.org/2000/svg"><g clip-path="url(#a)"><path d="M10.566 17A4.737 4.737 0 0 0 10 19.25c0 1.023.324 1.973.877 2.75H7v-5h3.566Zm6.934-4a3.5 3.5 0 0 1 3.5 3.5l-.001.103a2.75 2.75 0 0 1-.581 5.392L20.25 22h-5.5l-.168-.005a2.75 2.75 0 0 1-.579-5.392L14 16.5a3.5 3.5 0 0 1 3.5-3.5ZM21 8a1 1 0 0 1 1 1l.001 4.346A5.482 5.482 0 0 0 17.5 11l-.221.004A5.503 5.503 0 0 0 12.207 15H5v5H3a1 1 0 0 1-1-1V9a1 1 0 0 1 1-1h18ZM8 10H5v2h3v-2Zm9-8a1 1 0 0 1 1 1v3H6V3a1 1 0 0 1 1-1h10Z" /></g><defs><clipPath id="a"><path fill="#fff" d="M0 0h24v24H0z"/></clipPath></defs></svg>
